images/logo-white.svg

<svg width="128" height="107" viewBox="0 0 128 107" fill="none" xmlns="http://www.w3.org/2000/svg">
<path d="M0.104004 0.356259L50.7425 0.34847L67.221 0.352364C70.2591 0.352608 73.3172 0.426404 76.3529 0.314615L76.5731 0.28125L76.6565 0.398885C76.2941 0.999964 75.5763 1.54892 75.0779 2.05721L70.0852 7.06092C66.4961 10.6348 63.0114 14.3277 59.4001 17.8735C54.9745 17.9953 50.526 17.9064 46.097 17.9059L21.8334 17.9006C21.9375 22.7645 21.7921 27.6391 21.8505 32.5052C31.4154 32.6718 41.0134 32.535 50.5812 32.5084C50.6155 38.181 50.617 43.8536 50.5859 49.5262C47.2208 49.2768 43.6891 49.506 40.3034 49.4989C34.1641 49.4862 28.0017 49.3686 21.866 49.5615C21.8529 54.7291 21.9879 59.9581 21.8101 65.1201C24.3946 65.2215 27.0219 65.0702 29.6112 65.0551C31.9515 65.0417 34.2913 65.1613 36.6321 65.1401C39.4131 65.115 54.0271 64.6518 55.4897 65.2833C56.6707 65.7933 57.8122 67.0405 58.846 67.8238C63.7917 71.571 68.6428 75.4527 73.5454 79.2572C74.9097 80.3001 76.2555 81.3663 77.5828 82.4557C74.7842 82.2105 71.8259 82.3888 69.013 82.3871L52.8269 82.3763L0.105949 82.4078L0.104004 0.356259Z" fill="white"/>
<path d="M106.302 30.7067C106.463 20.5683 106.168 10.4192 106.34 0.28125C108.49 0.623141 111.203 0.384259 113.414 0.383528L127.983 0.374759L127.97 82.4557C125.444 82.3018 122.858 82.4065 120.324 82.4044L106.327 82.4426C106.192 71.2564 106.215 60.0226 106.345 48.8371L80.2054 48.8366C80.2748 54.7574 80.222 60.6845 80.2208 66.606L80.2266 76.0684C73.1073 70.3198 65.7718 64.8006 58.5546 59.172C58.5609 48.6939 58.3895 38.1844 58.5699 27.709C60.4794 25.6852 62.5168 23.7539 64.4862 21.7861C69.7384 16.5384 75.0643 11.3443 80.2356 6.01767C80.035 11.8235 80.2171 17.6956 80.2213 23.5082C80.223 25.8532 80.3956 28.3607 80.1412 30.6879L106.302 30.7067Z" fill="white"/>
<path d="M19.8345 103.409C21.2365 104.334 22.5727 104.776 24.2717 104.686C25.0779 104.644 25.7016 104.436 26.2334 103.804C26.4892 103.5 26.7824 103.082 26.6874 102.664C26.3689 101.261 21.9447 100.719 20.7495 99.989C20.1121 99.5998 19.5986 99.0314 19.4318 98.2883C19.2474 97.4679 19.4903 96.4314 19.9698 95.747C20.7303 94.6626 22.1091 94.3564 23.3368 94.1518C24.9128 94.0574 26.2709 94.4161 27.7441 94.9445C27.5337 95.4668 27.3676 96.0157 27.1835 96.5484C26.4043 96.0576 25.7577 95.8867 24.8588 95.7627C23.8242 95.6199 22.767 95.5458 21.9038 96.2362C21.4734 96.5802 21.0834 96.9523 21.0158 97.5216C21.4158 99.2519 25.8203 99.5981 27.2737 100.727C27.8488 101.174 28.2855 101.792 28.3515 102.532C28.4258 103.371 27.9974 104.401 27.4307 105.007C26.4567 106.048 24.7493 106.17 23.4119 106.177C21.7885 106.14 20.5533 105.661 19.1003 104.975L19.8345 103.409Z" fill="white"/>
<path d="M109.294 106.175C107.592 106.207 106.052 106.019 104.65 104.934C104.573 104.874 104.497 104.811 104.423 104.747C104.348 104.683 104.275 104.617 104.204 104.549C104.133 104.481 104.063 104.412 103.996 104.341C103.928 104.269 103.862 104.197 103.798 104.122C103.734 104.047 103.672 103.971 103.612 103.894C103.551 103.816 103.493 103.737 103.437 103.657C103.38 103.576 103.326 103.494 103.274 103.411C103.221 103.328 103.171 103.243 103.123 103.157C103.075 103.072 103.029 102.985 102.985 102.897C102.942 102.809 102.9 102.72 102.861 102.63C102.821 102.539 102.784 102.448 102.75 102.357C102.715 102.265 102.682 102.172 102.652 102.078C102.622 101.985 102.594 101.891 102.569 101.796C102.543 101.701 102.52 101.605 102.5 101.509C102.479 101.413 102.461 101.316 102.445 101.22C102.429 101.123 102.416 101.025 102.405 100.928C102.211 99.2803 102.687 97.5587 103.76 96.2841C104.925 94.8987 106.497 94.3436 108.239 94.1679C109.504 94.0624 111.026 94.4411 112.094 95.1014C112.176 95.1518 112.257 95.2043 112.337 95.2588C112.416 95.3134 112.494 95.3699 112.571 95.4283C112.648 95.4867 112.723 95.547 112.796 95.6093C112.87 95.6716 112.942 95.7357 113.012 95.8016C113.083 95.8674 113.152 95.935 113.219 96.0043C113.286 96.0737 113.351 96.1447 113.414 96.2174C113.478 96.2899 113.539 96.3641 113.599 96.4398C113.659 96.5155 113.716 96.5927 113.772 96.6714C113.828 96.75 113.882 96.83 113.934 96.9114C113.985 96.9927 114.035 97.0753 114.083 97.1591C114.13 97.243 114.176 97.328 114.219 97.414C114.262 97.5002 114.304 97.5874 114.343 97.6757C114.382 97.7638 114.418 97.8528 114.453 97.9429C114.487 98.033 114.519 98.124 114.549 98.2156C114.579 98.3072 114.607 98.3996 114.632 98.4927C114.657 98.5857 114.68 98.6794 114.701 98.7736C114.723 98.8748 114.743 98.9767 114.761 99.079C114.778 99.1814 114.793 99.2841 114.806 99.3872C114.818 99.4904 114.827 99.5937 114.835 99.6972C114.842 99.8009 114.846 99.9046 114.848 100.008C114.85 100.112 114.849 100.216 114.846 100.32C114.843 100.424 114.837 100.527 114.828 100.631C114.819 100.734 114.808 100.837 114.794 100.94C114.781 101.043 114.764 101.146 114.745 101.248C114.726 101.35 114.705 101.452 114.681 101.552C114.656 101.653 114.63 101.754 114.601 101.853C114.572 101.953 114.54 102.052 114.506 102.15C114.472 102.248 114.435 102.345 114.396 102.441C114.357 102.538 114.316 102.633 114.272 102.727C114.228 102.821 114.182 102.914 114.133 103.006C114.085 103.098 114.034 103.188 113.981 103.277C113.928 103.367 113.873 103.455 113.815 103.541C112.695 105.197 111.174 105.819 109.294 106.175ZM108.175 95.7179C106.867 95.9018 105.827 96.3534 105.027 97.4629C104.982 97.5269 104.938 97.592 104.896 97.6583C104.853 97.7248 104.813 97.7921 104.774 97.8603C104.735 97.9287 104.698 97.9979 104.663 98.068C104.627 98.1383 104.594 98.2094 104.562 98.2813C104.53 98.353 104.5 98.4257 104.472 98.4992C104.444 98.5725 104.418 98.6465 104.393 98.7211C104.369 98.7957 104.346 98.871 104.326 98.9469C104.305 99.0227 104.286 99.099 104.269 99.1758C104.253 99.2525 104.238 99.3296 104.225 99.4072C104.212 99.4847 104.201 99.5624 104.192 99.6404C104.183 99.7186 104.176 99.7968 104.17 99.8751C104.165 99.9536 104.162 100.032 104.161 100.111C104.16 100.189 104.161 100.268 104.163 100.346C104.166 100.425 104.171 100.503 104.177 100.582C104.184 100.66 104.193 100.738 104.203 100.816C104.214 100.894 104.227 100.971 104.241 101.048C104.449 102.191 105.085 103.241 106.045 103.905C107.034 104.588 108.158 104.734 109.329 104.61C110.549 104.363 111.604 103.723 112.277 102.658C112.319 102.591 112.359 102.523 112.398 102.453C112.437 102.384 112.474 102.314 112.509 102.243C112.544 102.172 112.578 102.1 112.61 102.028C112.641 101.955 112.671 101.882 112.699 101.807C112.727 101.733 112.753 101.658 112.778 101.583C112.802 101.507 112.825 101.431 112.845 101.355C112.865 101.278 112.884 101.201 112.901 101.124C112.917 101.046 112.932 100.968 112.945 100.89C112.958 100.812 112.969 100.733 112.977 100.655C112.986 100.576 112.993 100.497 112.998 100.418C113.003 100.339 113.006 100.259 113.007 100.18C113.008 100.101 113.007 100.022 113.004 99.9423C113.002 99.8632 112.997 99.784 112.99 99.7049C112.983 99.626 112.974 99.5473 112.963 99.4688C112.953 99.3901 112.94 99.3119 112.925 99.2341C112.91 99.1561 112.894 99.0786 112.875 99.0015C112.841 98.8608 112.8 98.7221 112.751 98.5856C112.703 98.449 112.648 98.3152 112.587 98.1843C112.525 98.0532 112.457 97.9254 112.383 97.8011C112.309 97.6767 112.229 97.5563 112.142 97.44C112.056 97.3236 111.964 97.2118 111.867 97.1044C111.77 96.9972 111.667 96.8952 111.56 96.7982C111.452 96.7011 111.34 96.6097 111.224 96.5238C111.107 96.4378 110.986 96.3579 110.862 96.2841C110.078 95.8267 109.075 95.6486 108.175 95.7179Z" fill="white"/>
<path d="M29.7425 95.8014C29.723 95.3715 29.6664 94.9237 29.8 94.5095C30.1334 94.2613 30.3922 94.3176 30.8012 94.2988C33.6954 94.3051 36.5948 94.3576 39.4883 94.3061L39.3908 95.811L35.5039 95.7939L35.5087 102.516L35.5116 106.041L33.7166 106.042C33.7341 102.627 33.7327 99.2116 33.7125 95.7966L29.7425 95.8014Z" fill="white"/>
<path d="M41.7939 94.3191L46.2393 94.2988C46.8835 94.3111 47.5676 94.3311 48.1942 94.4909C49.3328 94.7817 50.3157 95.4471 50.8761 96.4966C50.9371 96.6134 50.9923 96.7329 51.0417 96.855C51.0913 96.9772 51.1348 97.1014 51.1722 97.2277C51.2096 97.354 51.2408 97.4819 51.2658 97.6114C51.2908 97.7407 51.3096 97.871 51.3221 98.0021C51.3345 98.1333 51.3406 98.2649 51.3404 98.3966C51.3401 98.5284 51.3334 98.6598 51.3204 98.7909C51.3074 98.922 51.2881 99.0522 51.2624 99.1814C51.2369 99.3107 51.2051 99.4384 51.1671 99.5646C50.7793 100.835 49.9233 101.514 48.8008 102.1C49.6212 103.487 50.5655 104.783 51.5494 106.058L49.6975 106.015C49.1564 105.38 48.6788 104.677 48.1848 104.004L47.0082 102.435C45.8881 102.484 44.7579 102.44 43.6367 102.427L43.5969 106.045L41.8057 106.041L41.7939 94.3191ZM43.9135 95.7309L43.6766 95.8577C43.4044 97.4532 43.6054 99.3583 43.6172 100.99C45.2779 101.029 47.1326 101.296 48.6018 100.38C49.2389 99.73 49.5519 99.2466 49.5309 98.3133C49.5155 97.6391 49.3391 97.005 48.8179 96.5464C47.656 95.5234 45.3853 95.7441 43.9135 95.7309Z" fill="white"/>
<path d="M54.4686 106.051C54.4693 104.649 54.3309 94.8641 54.5348 94.2871L56.2184 94.3458C56.2181 95.7685 56.4367 105.574 56.0954 106.045L54.4686 106.051Z" fill="white"/>
<path d="M73.1907 94.3422L74.7927 94.3141C75.0568 94.3849 74.9754 95.0586 74.9791 95.2806C75.0118 97.3272 74.4485 102.248 75.8899 103.771C76.5079 104.424 77.3706 104.637 78.243 104.651C79.0638 104.664 79.8664 104.438 80.4453 103.83C81.9739 102.225 81.4072 96.5821 81.3832 94.2871L83.1857 94.3603L83.1972 96.9786C83.1631 99.3261 83.6792 102.822 81.9948 104.717C81.0914 105.734 79.7022 106.165 78.3747 106.196C76.9734 106.229 75.5031 105.827 74.4858 104.821C74.3698 104.706 74.2615 104.584 74.1609 104.456C74.0601 104.328 73.9678 104.194 73.884 104.054C73.8001 103.914 73.7253 103.769 73.6597 103.62C73.594 103.47 73.538 103.317 73.4916 103.161C72.8672 101.047 73.1847 96.6693 73.1907 94.3422Z" fill="white"/>
<path d="M117.953 106.044C117.867 103.646 117.928 101.224 117.927 98.8222C117.927 97.3511 117.804 95.7467 118.005 94.2932C118.474 94.2896 118.948 94.3224 119.417 94.3385C121.838 96.9072 123.797 99.9571 126.154 102.597C126.318 99.8787 126.181 97.0644 126.154 94.3392L127.962 94.2952C127.927 98.2112 128.078 102.148 127.942 106.061C127.616 106.059 127.238 106.086 126.918 106.032C126.101 105.896 120.657 98.657 119.768 97.4953C119.627 100.331 119.751 103.235 119.737 106.079L117.953 106.044Z" fill="white"/>
<path d="M0 106.025C0.0746232 102.132 0.0173321 98.2301 0.0129991 94.3364C3.16932 94.3094 7.25459 93.7356 9.77059 96.091C10.8988 97.1473 11.35 98.5666 11.3743 100.079C11.4022 101.811 10.8403 103.083 9.65601 104.314C7.08463 106.59 3.19099 106.052 0 106.025ZM1.81286 95.7945C1.81407 98.7257 1.78109 101.661 1.81768 104.592C4.2321 104.624 6.41977 104.918 8.38332 103.232C9.25762 102.292 9.59823 101.144 9.54215 99.8694C9.49472 98.7926 9.1529 97.7809 8.34601 97.0375C6.6458 95.4714 3.95094 95.7896 1.81286 95.7945Z" fill="white"/>
<path d="M14.4555 106.036C14.3446 102.164 14.6857 98.2025 14.385 94.3488C15.0111 94.3361 15.6406 94.351 16.2667 94.3539C16.1485 98.2329 16.2256 102.132 16.2364 106.014L14.4555 106.036Z" fill="white"/>
<path d="M60.1712 106.056C60.0205 102.158 60.2875 98.2478 60.0884 94.3479C61.9325 94.3045 63.8229 94.222 65.6632 94.3325C66.8353 94.4028 68.2697 94.6526 69.0624 95.5989C69.5918 96.2308 69.7085 97.1282 69.5872 97.9233C69.4317 98.9415 68.6419 99.4458 67.8624 99.9901C68.6221 100.333 69.4006 100.7 69.8809 101.415C70.4497 102.262 70.3216 103.191 70.1517 104.134C70.0044 104.393 69.8635 104.629 69.6543 104.844C67.9286 106.614 62.5372 106.057 60.1712 106.056ZM61.94 95.7072L61.9369 99.3601C63.5494 99.3996 65.7012 99.6933 67.1809 98.9627C67.5666 98.4972 67.959 97.8147 67.8918 97.1855C67.8514 96.8044 67.5875 96.5151 67.2792 96.3131C65.9244 95.4251 63.4934 95.6981 61.94 95.7072ZM61.9301 100.726C61.9226 102.025 61.9258 103.324 61.9398 104.623C63.7704 104.632 66.2578 105.022 67.8853 104.123C68.2904 103.652 68.6532 103.035 68.6087 102.386C68.5824 102.001 68.3576 101.706 68.0577 101.485C66.4942 100.335 63.7772 100.796 61.9301 100.726Z" fill="white"/>
<path d="M85.3459 95.7995L85.3558 94.3008C88.5757 94.3889 91.8148 94.322 95.0371 94.3256L95.0217 95.8062L91.1685 95.8031L91.1668 102.033L91.1634 106.032L89.3462 106.054L89.4204 95.8229L85.3459 95.7995Z" fill="white"/>
<path d="M97.5213 106.048L97.5076 94.3573L99.3308 94.3008C99.3083 98.213 99.3057 102.125 99.3228 106.037L97.5213 106.048Z" fill="white"/>
</svg>

<svg width="128" height="107" fill="none" xmlns="http://www.w3.org/2000/svg"><path d="M.104.356L50.742.348l16.479.004c3.038 0 6.096.074 9.132-.037l.22-.034.084.118c-.363.601-1.08 1.15-1.58 1.658l-4.992 5.004c-3.589 3.574-7.074 7.267-10.685 10.813-4.425.121-8.874.032-13.303.032L21.833 17.9c.105 4.864-.04 9.738.018 14.604 9.564.167 19.162.03 28.73.003.034 5.673.036 11.346.005 17.018-3.365-.25-6.897-.02-10.283-.027-6.139-.013-12.301-.13-18.437.063-.013 5.167.122 10.396-.056 15.558 2.585.102 5.212-.05 7.801-.065 2.34-.013 4.68.106 7.021.085 2.781-.025 17.395-.488 18.858.143 1.18.51 2.322 1.757 3.356 2.54 4.946 3.748 9.797 7.63 14.7 11.434 1.364 1.043 2.71 2.11 4.037 3.199-2.799-.246-5.757-.067-8.57-.069l-16.186-.01-52.721.03L.104.358z" fill="#fff"/><path d="M106.302 30.707c.161-10.139-.134-20.288.038-30.426 2.15.342 4.863.103 7.074.103l14.569-.01-.013 82.082c-2.526-.154-5.112-.05-7.646-.052l-13.997.039a1420.63 1420.63 0 01.018-33.606h-26.14c.07 5.92.017 11.847.016 17.769l.006 9.462c-7.12-5.748-14.455-11.267-21.672-16.896.006-10.478-.166-20.988.015-31.463 1.91-2.024 3.947-3.955 5.916-5.923 5.252-5.248 10.578-10.442 15.75-15.768-.201 5.805-.019 11.678-.015 17.49.002 2.345.175 4.853-.08 7.18l26.161.019zm-86.468 72.702c1.402.925 2.739 1.367 4.438 1.277.806-.042 1.43-.25 1.961-.882.256-.304.55-.722.454-1.14-.318-1.403-4.742-1.945-5.938-2.675-.637-.39-1.15-.958-1.317-1.7-.185-.821.058-1.858.538-2.542.76-1.084 2.14-1.39 3.367-1.595 1.576-.095 2.934.264 4.407.793-.21.522-.376 1.07-.56 1.603-.78-.49-1.426-.661-2.325-.785-1.035-.143-2.092-.217-2.955.473-.43.344-.82.716-.888 1.286.4 1.73 4.804 2.076 6.258 3.205.575.447 1.011 1.065 1.078 1.805.074.839-.355 1.869-.921 2.475-.974 1.041-2.682 1.163-4.02 1.17-1.623-.037-2.858-.516-4.31-1.202l.733-1.566zm89.46 2.766c-1.702.032-3.242-.156-4.644-1.241a5.773 5.773 0 01-.446-.385 5.828 5.828 0 01-.93-1.138 5.848 5.848 0 01-.869-2.483c-.194-1.648.282-3.37 1.355-4.644 1.165-1.385 2.737-1.94 4.479-2.116 1.265-.106 2.787.273 3.855.933a6.171 6.171 0 01.477.327 5.013 5.013 0 01.441.374 5.28 5.28 0 01.587.638 5.572 5.572 0 01.484.72 6.16 6.16 0 01.37.783 6.524 6.524 0 01.179.55 6.687 6.687 0 01.174.894 6.474 6.474 0 01.022 1.244 6.482 6.482 0 01-.147.921 7.384 7.384 0 01-.175.598 5.993 5.993 0 01-.373.856 5.523 5.523 0 01-.318.535c-1.12 1.656-2.641 2.278-4.521 2.634zm-1.119-10.457c-1.308.184-2.348.635-3.148 1.745a4.89 4.89 0 00-.465.818 4.227 4.227 0 00-.169.44 4.399 4.399 0 00-.124.455 5.937 5.937 0 00-.077.464 4.626 4.626 0 00-.015.942c.007.078.016.156.026.234.011.078.024.155.038.232.208 1.143.844 2.193 1.804 2.857.989.683 2.113.829 3.284.705 1.22-.247 2.275-.887 2.948-1.952a4.598 4.598 0 00.232-.415 5.99 5.99 0 00.101-.215 5.36 5.36 0 00.235-.673 6.46 6.46 0 00.056-.231 6.41 6.41 0 00.044-.234 4.737 4.737 0 00-.194-2.304 4.417 4.417 0 00-.368-.785 4.418 4.418 0 00-1.159-1.277 4.479 4.479 0 00-.362-.24c-.784-.457-1.787-.635-2.687-.566zm-78.433.083c-.019-.43-.076-.877.058-1.291.333-.249.592-.192 1.001-.211 2.894.006 5.794.059 8.687.007l-.097 1.505-3.887-.017.005 6.722.003 3.525-1.795.001c.017-3.415.016-6.83-.005-10.245l-3.97.004zm12.052-1.481l4.445-.021c.645.012 1.329.032 1.955.192 1.139.29 2.122.956 2.682 2.006a4.076 4.076 0 01.386 2.684c-.025.13-.057.257-.095.384-.388 1.27-1.244 1.949-2.366 2.535.82 1.387 1.764 2.683 2.748 3.958l-1.852-.043c-.54-.635-1.018-1.338-1.512-2.011l-1.177-1.569c-1.12.049-2.25.005-3.371-.008l-.04 3.618-1.791-.004-.012-11.722zm2.12 1.41l-.237.128c-.273 1.595-.072 3.5-.06 5.132 1.66.039 3.516.306 4.985-.61.637-.65.95-1.133.929-2.067-.015-.674-.192-1.308-.713-1.767-1.162-1.023-3.433-.802-4.904-.815zm10.555 10.321c0-1.402-.138-11.187.066-11.764l1.683.059c0 1.422.219 11.228-.123 11.699l-1.626.006zM73.19 94.342l1.603-.028c.264.07.182.745.186.967.033 2.046-.53 6.967.91 8.49.619.653 1.482.866 2.354.88.82.013 1.623-.213 2.202-.821 1.529-1.605.962-7.248.938-9.543l1.803.073.011 2.619c-.034 2.347.482 5.843-1.202 7.738-.904 1.017-2.293 1.448-3.62 1.479-1.402.033-2.872-.369-3.89-1.375a3.955 3.955 0 01-.825-1.201 3.95 3.95 0 01-.168-.459c-.625-2.114-.307-6.492-.301-8.819zm44.763 11.702c-.086-2.398-.025-4.82-.026-7.222 0-1.47-.123-3.075.078-4.529.469-.003.943.03 1.412.045 2.421 2.57 4.38 5.62 6.737 8.259.164-2.718.027-5.533 0-8.258l1.808-.044c-.035 3.916.116 7.853-.02 11.766-.326-.002-.704.025-1.024-.029-.817-.136-6.261-7.375-7.15-8.537-.141 2.836-.017 5.74-.031 8.584l-1.784-.035zM0 106.025c.075-3.893.017-7.795.013-11.689 3.156-.027 7.242-.6 9.758 1.755 1.128 1.056 1.579 2.476 1.603 3.988.028 1.732-.534 3.004-1.718 4.235-2.571 2.276-6.465 1.738-9.656 1.711zm1.813-10.23c.001 2.93-.032 5.866.005 8.797 2.414.032 4.602.326 6.565-1.36.875-.94 1.215-2.088 1.16-3.363-.048-1.076-.39-2.088-1.197-2.832-1.7-1.566-4.395-1.247-6.533-1.243zm12.643 10.241c-.111-3.872.23-7.834-.071-11.687.626-.013 1.256.002 1.882.005-.119 3.879-.041 7.778-.03 11.66l-1.781.022zm45.715.02c-.15-3.898.117-7.808-.083-11.708 1.844-.043 3.735-.126 5.575-.016 1.172.07 2.607.32 3.4 1.267.529.632.645 1.53.524 2.324-.155 1.019-.945 1.523-1.725 2.067.76.343 1.539.71 2.019 1.425.569.847.44 1.776.27 2.719-.147.259-.287.495-.497.71-1.725 1.77-7.117 1.213-9.483 1.212zm1.769-10.349l-.003 3.653c1.612.04 3.764.333 5.244-.397.386-.466.778-1.148.71-1.777-.04-.382-.303-.67-.612-.873-1.355-.888-3.786-.615-5.339-.606zm-.01 5.019c-.007 1.299-.004 2.598.01 3.897 1.83.009 4.318.399 5.945-.5.405-.471.768-1.088.724-1.737-.027-.385-.251-.68-.551-.901-1.564-1.15-4.28-.689-6.128-.759zM85.346 95.8l.01-1.5c3.22.089 6.459.022 9.681.026l-.015 1.48-3.854-.003-.001 6.23-.004 3.999-1.817.022.074-10.231-4.074-.023zm12.175 10.248l-.013-11.69 1.823-.057a1147.79 1147.79 0 00-.008 11.736l-1.802.011z" fill="#fff"/></svg>
